svgs/bodhi_timer.svg

<svg xmlns="http://www.w3.org/2000/svg" viewBox="0 0 192 192"><path d="M80.86 16.5c11.727 12.842 14.177 36.611 18.903 47.023 4.726 10.413 10.152 3.297 29.055 18.567 18.903 15.269 22.054 28.63 22.054 51.882 0 23.251-34.481 30.365-38.682 30.365-4.2 0-12.952.347-16.628-3.817a34.673 34.673 0 0 1-17.852 3.824c-5.426 0-36.582-6.601-36.582-35.751 0-29.151 21.529-50.668 35.706-58.3 14.178-7.633 20.48-8.329 15.364-31.742" fill="none" stroke="#000" stroke-width="8" stroke-linecap="round" stroke-linejoin="round"/><path d="M94.007 44.604c2.645 24.462 1.38 102.728 1.555 115.916A48.695 48.695 0 0 0 96 175.5" fill="none" stroke="#000" stroke-width="8" stroke-linecap="round" stroke-linejoin="round"/><path d="M81.336 67.924c1.274 2.713 11.743 7.664 14.21 8.66 1.452.585 8.768-3.691 11.054-6.427" fill="none" stroke="#000" stroke-width="6" stroke-linecap="round" stroke-linejoin="round"/><path d="M69.278 75.231a77.5 77.5 0 0 0 26.437 22.128 152.176 152.176 0 0 0 25.437-20.775" fill="none" stroke="#000" stroke-width="8" stroke-linecap="round" stroke-linejoin="round"/><path d="M56.223 88.009c3.634 5.359 32.79 30.172 39.479 33.295 1.363-.693 32.94-23.599 39.748-33.295" fill="none" stroke="#000" stroke-width="8" stroke-linecap="round" stroke-linejoin="round"/><path d="M43.377 112.448c7.203 7.989 42.034 24.647 52.623 28.637 8.664-2.082 43.145-25.506 51.87-33.361" fill="none" stroke="#000" stroke-width="8" stroke-linecap="round" stroke-linejoin="round"/><path d="M42.027 136.742c9.603 6.079 39.85 17.878 53.519 19.266 12.619-2.949 53.361-22.561 55.305-24.988" fill="none" stroke="#000" stroke-width="8" stroke-linecap="round" stroke-linejoin="round"/></svg>

<svg
    xmlns="http://www.w3.org/2000/svg"
    viewBox="0 0 192 192"
    id="vector">
    <path
        id="path"
        d="M 80.86 16.5 C 92.587 29.342 95.037 53.111 99.763 63.523 C 104.489 73.936 109.915 66.82 128.818 82.09 C 147.721 97.359 150.872 110.72 150.872 133.972 C 150.872 157.223 116.391 164.337 112.19 164.337 C 107.99 164.337 99.238 164.684 95.562 160.52 C 90.068 163.365 83.899 164.686 77.71 164.344 C 72.284 164.344 41.128 157.743 41.128 128.593 C 41.128 99.442 62.657 77.925 76.834 70.293 C 91.012 62.66 97.314 61.964 92.198 38.551"
        fill="none"
        stroke="#000000"
        stroke-width="8"
        stroke-linecap="round"
        stroke-linejoin="round"/>
    <path
        id="path_1"
        d="M 94.007 44.604 C 96.652 69.066 95.387 147.332 95.562 160.52 C 94.934 165.506 95.082 170.558 96 175.5"
        fill="none"
        stroke="#000000"
        stroke-width="8"
        stroke-linecap="round"
        stroke-linejoin="round"/>
    <path
        id="path_2"
        d="M 81.336 67.924 C 82.61 70.637 93.079 75.588 95.546 76.584 C 96.998 77.169 104.314 72.893 106.6 70.157"
        fill="none"
        stroke="#000000"
        stroke-width="6"
        stroke-linecap="round"
        stroke-linejoin="round"/>
    <path
        id="path_3"
        d="M 69.278 75.231 C 76.3 84.484 85.337 92.048 95.715 97.359 C 104.926 91.366 113.455 84.4 121.152 76.584"
        fill="none"
        stroke="#000000"
        stroke-width="8"
        stroke-linecap="round"
        stroke-linejoin="round"/>
    <path
        id="path_4"
        d="M 56.223 88.009 C 59.857 93.368 89.013 118.181 95.702 121.304 C 97.065 120.611 128.642 97.705 135.45 88.009"
        fill="none"
        stroke="#000000"
        stroke-width="8"
        stroke-linecap="round"
        stroke-linejoin="round"/>
    <path
        id="path_5"
        d="M 43.377 112.448 C 50.58 120.437 85.411 137.095 96 141.085 C 104.664 139.003 139.145 115.579 147.87 107.724"
        fill="none"
        stroke="#000000"
        stroke-width="8"
        stroke-linecap="round"
        stroke-linejoin="round"/>
    <path
        id="path_6"
        d="M 42.027 136.742 C 51.63 142.821 81.877 154.62 95.546 156.008 C 108.165 153.059 148.907 133.447 150.851 131.02"
        fill="none"
        stroke="#000000"
        stroke-width="8"
        stroke-linecap="round"
        stroke-linejoin="round"/>
</svg>
